src/assets/duotone/Ruler.svg

<?xml version="1.0" encoding="UTF-8"?>
<svg width="24" height="24" viewBox="0 0 24 24" xmlns="http://www.w3.org/2000/svg">
 <path d="m5 17h14c1.66 0 3-1.34 3-3v-4c0-1.66-1.34-3-3-3h-14c-1.66 0-3 1.34-3 3v4c0 1.66 1.34 3 3 3z" opacity=".4"/>
 <path d="m18.75 7v5c0 0.41-0.34 0.75-0.75 0.75s-0.75-0.34-0.75-0.75v-5h1.5z"/>
 <path d="m6.75 7v3.8c0 0.41-0.34 0.75-0.75 0.75s-0.75-0.34-0.75-0.75v-3.8h1.5z"/>
 <path d="m10.79 7-0.04 5.01c0 0.41-0.34 0.74-0.75 0.74h-0.01c-0.41 0-0.74-0.34-0.74-0.76l0.04-4.99h1.5z"/>
 <path d="m14.75 7v2.6c0 0.41-0.34 0.75-0.75 0.75s-0.75-0.34-0.75-0.75v-2.6h1.5z"/>
</svg>

<svg width="24" height="24" viewBox="0 0 24 24"  xmlns="http://www.w3.org/2000/svg">
<path opacity="0.4" d="M5 17H19C20.66 17 22 15.66 22 14V10C22 8.34 20.66 7 19 7H5C3.34 7 2 8.34 2 10V14C2 15.66 3.34 17 5 17Z" />
<path d="M18.75 7V12C18.75 12.41 18.41 12.75 18 12.75C17.59 12.75 17.25 12.41 17.25 12V7H18.75Z" />
<path d="M6.75 7V10.8C6.75 11.21 6.41 11.55 6 11.55C5.59 11.55 5.25 11.21 5.25 10.8V7H6.75Z" />
<path d="M10.79 7L10.75 12.01C10.75 12.42 10.41 12.75 10 12.75C10 12.75 10 12.75 9.99 12.75C9.58 12.75 9.25 12.41 9.25 11.99L9.29 7H10.79Z" />
<path d="M14.75 7V9.6C14.75 10.01 14.41 10.35 14 10.35C13.59 10.35 13.25 10.01 13.25 9.6V7H14.75Z" />
</svg>
